X:49
T: Rache im Zweikampf
N: Q2097E
O: Mitteleuropa, franzoesische Schweiz, Jura
N: Schweizerische Fassung der Ballade.
R: Ballade, Frau in Maennerkleidung, Soldat, Betrug, Rache
M: 6/8
L: 1/8
K: C
 | AA_Bcdc | _BAGF2F
AABcdc | _BAGF2
G | G2FE3 | Gcde2d | cd
eG2F | E3GGG | BABc3

